docs/img/aslogobalck.svg

<svg width="241" height="50" viewBox="0 0 241 50" fill="none" xmlns="http://www.w3.org/2000/svg">
<path d="M19.3331 31.1578H7.38304L4.69918 38.8889H0.820312L11.7125 9.2665H15.0036L25.9154 38.8889H22.0561L19.3331 31.1578ZM8.51928 27.9433H18.2164L13.3581 14.0883L8.51928 27.9433Z" fill="black"/>
<path d="M38.1593 25.685C34.9334 24.722 32.5826 23.5419 31.1068 22.1449C29.6441 20.7343 28.9127 18.9982 28.9127 16.9366C28.9127 14.6037 29.8073 12.6777 31.5966 11.1586C33.3989 9.62593 35.7366 8.8596 38.6099 8.8596C40.5689 8.8596 42.3124 9.25293 43.8405 10.0396C45.3816 10.8263 46.57 11.9114 47.4059 13.2948C48.2548 14.6783 48.6793 16.1906 48.6793 17.8318H44.8983C44.8983 16.0414 44.3498 14.6376 43.2528 13.6203C42.1557 12.5895 40.6081 12.0741 38.6099 12.0741C36.7553 12.0741 35.3057 12.5014 34.2608 13.3559C33.2291 14.1968 32.7132 15.37 32.7132 16.8755C32.7132 18.0827 33.203 19.1067 34.1825 19.9477C35.1751 20.775 36.8533 21.5346 39.2172 22.2263C41.5941 22.918 43.4487 23.6844 44.7808 24.5253C46.126 25.3527 47.1186 26.3224 47.7585 27.4346C48.4115 28.5468 48.738 29.8557 48.738 31.3612C48.738 33.7619 47.8369 35.6879 46.0346 37.1392C44.2323 38.5769 41.8227 39.2958 38.8058 39.2958C36.8468 39.2958 35.0183 38.9092 33.3205 38.1361C31.6227 37.3495 30.3102 36.2779 29.3829 34.9216C28.4687 33.5653 28.0116 32.0258 28.0116 30.3033H31.7925C31.7925 32.0936 32.4259 33.511 33.6927 34.5554C34.9726 35.5862 36.677 36.1016 38.8058 36.1016C40.7909 36.1016 42.3124 35.6812 43.3703 34.8402C44.4282 33.9993 44.9571 32.8532 44.9571 31.4019C44.9571 29.9506 44.4674 28.8317 43.4879 28.045C42.5083 27.2447 40.7322 26.4581 38.1593 25.685Z" fill="black"/>
<path d="M60.8252 25.1153L57.3381 28.8791V38.8889H53.5768V9.2665H57.3381V23.9149L70.013 9.2665H74.558L63.3328 22.3484L75.4395 38.8889H70.9338L60.8252 25.1153Z" fill="black"/>
<path d="M100.045 25.0339C100.045 27.9365 99.5747 30.4728 98.6344 32.643C97.694 34.7995 96.3619 36.4475 94.638 37.5868C92.914 38.7261 90.9028 39.2958 88.6042 39.2958C86.3578 39.2958 84.3661 38.7261 82.6291 37.5868C80.8921 36.4339 79.5404 34.7995 78.574 32.6837C77.6206 30.5542 77.1308 28.0925 77.1047 25.2984V23.1622C77.1047 20.3139 77.5814 17.7979 78.5348 15.6142C79.4882 13.4305 80.8334 11.7622 82.5704 10.6093C84.3204 9.44282 86.3186 8.8596 88.565 8.8596C90.8505 8.8596 92.8618 9.43604 94.5988 10.5889C96.3488 11.7282 97.694 13.3898 98.6344 15.5735C99.5747 17.7436 100.045 20.2732 100.045 23.1622V25.0339ZM96.3031 23.1215C96.3031 19.6086 95.624 16.9162 94.2657 15.0445C92.9075 13.1592 91.0072 12.2165 88.565 12.2165C86.188 12.2165 84.3139 13.1592 82.9426 15.0445C81.5843 16.9162 80.8856 19.5204 80.8464 22.857V25.0339C80.8464 28.4383 81.5321 31.1171 82.9034 33.0702C84.2878 35.0098 86.188 35.9796 88.6042 35.9796C91.0334 35.9796 92.914 35.064 94.2462 33.233C95.5783 31.3884 96.264 28.7503 96.3031 25.3187V23.1215Z" fill="black"/>
<path d="M110.545 9.2665L119.87 33.4364L129.195 9.2665H134.073V38.8889H130.312V27.3532L130.664 14.9021L121.3 38.8889H118.421L109.076 14.9631L109.448 27.3532V38.8889H105.687V9.2665H110.545Z" fill="black"/>
<path d="M156.817 31.1578H144.867L142.183 38.8889H138.305L149.197 9.2665H152.488L163.4 38.8889H159.54L156.817 31.1578ZM146.004 27.9433H155.701L150.842 14.0883L146.004 27.9433Z" fill="black"/>
<path d="M177.701 26.9057H171.001V38.8889H167.22V9.2665H176.662C179.875 9.2665 182.343 10.026 184.067 11.5451C185.804 13.0642 186.673 15.2751 186.673 18.1776C186.673 20.0222 186.19 21.6295 185.223 22.9994C184.27 24.3693 182.938 25.3933 181.227 26.0715L187.927 38.6448V38.8889H183.891L177.701 26.9057ZM171.001 23.7115H176.78C178.647 23.7115 180.13 23.2096 181.227 22.206C182.337 21.2023 182.892 19.8595 182.892 18.1776C182.892 16.3466 182.363 14.9428 181.305 13.9662C180.26 12.9896 178.745 12.4946 176.76 12.481H171.001V23.7115Z" fill="black"/>
<path d="M213.903 25.0339C213.903 27.9365 213.433 30.4728 212.493 32.643C211.553 34.7995 210.22 36.4475 208.496 37.5868C206.772 38.7261 204.761 39.2958 202.463 39.2958C200.216 39.2958 198.225 38.7261 196.488 37.5868C194.751 36.4339 193.399 34.7995 192.432 32.6837C191.479 30.5542 190.989 28.0925 190.963 25.2984V23.1622C190.963 20.3139 191.44 17.7979 192.393 15.6142C193.347 13.4305 194.692 11.7622 196.429 10.6093C198.179 9.44282 200.177 8.8596 202.423 8.8596C204.709 8.8596 206.72 9.43604 208.457 10.5889C210.207 11.7282 211.553 13.3898 212.493 15.5735C213.433 17.7436 213.903 20.2732 213.903 23.1622V25.0339ZM210.162 23.1215C210.162 19.6086 209.482 16.9162 208.124 15.0445C206.766 13.1592 204.866 12.2165 202.423 12.2165C200.047 12.2165 198.172 13.1592 196.801 15.0445C195.443 16.9162 194.744 19.5204 194.705 22.857V25.0339C194.705 28.4383 195.391 31.1171 196.762 33.0702C198.146 35.0098 200.047 35.9796 202.463 35.9796C204.892 35.9796 206.772 35.064 208.105 33.233C209.437 31.3884 210.122 28.7503 210.162 25.3187V23.1215Z" fill="black"/>
<path d="M228.557 33.7009L236.706 9.2665H240.82L230.242 38.8889H226.911L216.352 9.2665H220.446L228.557 33.7009Z" fill="black"/>
<path d="M87.9294 40.762C87.2992 40.082 86.4295 39.6978 85.5207 39.6978H38.644C37.7294 39.6978 36.8547 40.0869 36.2238 40.7745L28.7453 48.9233C28.1143 49.6109 27.2397 50 26.3251 50H6.0385C3.00934 50 1.54153 46.1513 3.74918 43.9972L47.8759 0.941667C48.4959 0.33675 49.3145 0 50.1652 0H73.8059C74.6534 0 75.4692 0.334241 76.0885 0.935128L120.459 43.9907C122.676 46.1416 121.21 50 118.177 50H97.9145C97.0057 50 96.136 49.6158 95.5058 48.9358L87.9294 40.762ZM50.2311 25.4898C48.2086 27.7018 49.7184 31.353 52.6556 31.353H71.44C74.3859 31.353 75.892 27.683 73.8518 25.4761L64.408 15.2606C63.0871 13.8318 60.8849 13.8381 59.5717 15.2744L50.2311 25.4898Z" fill="black" fill-opacity="0.76"/>
<path d="M209.036 36.5642C209.036 34.6702 207.148 33.2219 203.372 32.2192C199.596 31.1943 192.799 30.1248 182.98 29.0107C173.162 27.8743 165.39 26.7602 159.662 25.6684C144.054 22.6827 136.25 18.6609 136.25 13.6029C136.25 10.9737 138.327 8.63413 142.481 6.58422C146.697 4.51203 152.708 2.89661 160.512 1.73797C168.379 0.579323 177.19 0 186.945 0C196.764 0 205.512 0.635027 213.19 1.90508C220.868 3.15285 226.816 4.92424 231.033 7.21925C233.645 8.62006 235.46 10.1371 236.478 11.7703C237.481 13.3802 235.955 15.0401 234.109 15.0401H212.474C210.628 15.0401 209.052 13.2953 207.635 12.0659C206.643 11.2059 205.16 10.4705 203.183 9.85963C199.218 8.61185 193.648 7.98797 186.473 7.98797C179.55 7.98797 174.169 8.51159 170.33 9.55882C166.491 10.5838 164.571 11.943 164.571 13.6364C164.571 15.2184 166.806 16.5441 171.274 17.6136C175.806 18.6832 182.445 19.6858 191.194 20.6217C207.305 22.3373 219.043 24.4652 226.407 27.0053C233.77 29.5455 237.452 32.7094 237.452 36.4973C237.452 40.7086 232.952 44.0174 223.952 46.4238C214.952 48.8079 202.837 50 187.606 50C177.033 50 167.404 49.3204 158.718 47.9612C150.033 46.5798 143.393 44.697 138.799 42.3128C135.925 40.8009 133.963 39.1366 132.911 37.3199C131.96 35.6763 133.499 34.0241 135.345 34.0241H157.074C158.921 34.0241 160.409 35.7599 161.694 37.1365C164.771 40.4314 173.408 42.0789 187.606 42.0789C194.341 42.0789 199.596 41.5998 203.372 40.6417C207.148 39.6613 209.036 38.3021 209.036 36.5642Z" fill="black"/>
</svg>

<svg width="241" height="50" fill="none" xmlns="http://www.w3.org/2000/svg"><path d="M19.333 31.158H7.383l-2.684 7.73H.82l10.893-29.62h3.29L25.915 38.89h-3.859l-2.723-7.731zM8.52 27.943h9.697l-4.858-13.855L8.52 27.943zm29.64-2.258c-3.227-.963-5.577-2.143-7.053-3.54-1.463-1.41-2.194-3.147-2.194-5.208 0-2.333.894-4.26 2.684-5.778 1.802-1.533 4.14-2.3 7.013-2.3 1.959 0 3.702.394 5.23 1.18 1.542.787 2.73 1.872 3.566 3.256a8.512 8.512 0 011.273 4.537H44.9c0-1.79-.55-3.194-1.646-4.212-1.097-1.03-2.645-1.546-4.643-1.546-1.855 0-3.304.427-4.35 1.282-1.03.84-1.547 2.014-1.547 3.52 0 1.207.49 2.23 1.47 3.072.992.827 2.67 1.587 5.034 2.278 2.377.692 4.232 1.458 5.564 2.3 1.345.827 2.338 1.796 2.977 2.909.653 1.112.98 2.42.98 3.926 0 2.4-.901 4.327-2.703 5.778-1.803 1.438-4.212 2.157-7.23 2.157-1.958 0-3.787-.387-5.484-1.16-1.698-.787-3.01-1.858-3.938-3.214-.914-1.357-1.371-2.896-1.371-4.619h3.78c0 1.79.634 3.208 1.9 4.252 1.28 1.031 2.985 1.547 5.114 1.547 1.985 0 3.506-.42 4.564-1.262 1.058-.84 1.587-1.987 1.587-3.438s-.49-2.57-1.47-3.357c-.979-.8-2.755-1.587-5.328-2.36zm22.665-.57l-3.487 3.764v10.01h-3.761V9.266h3.761v14.649L70.013 9.267h4.545L63.333 22.348l12.106 16.54h-4.505L60.825 25.116zm39.22-.081c0 2.902-.47 5.439-1.41 7.609-.941 2.157-2.273 3.804-3.997 4.944-1.724 1.14-3.735 1.709-6.034 1.709-2.246 0-4.238-.57-5.975-1.71-1.737-1.152-3.089-2.786-4.055-4.902-.953-2.13-1.443-4.591-1.47-7.386v-2.136c0-2.848.477-5.364 1.43-7.548.954-2.184 2.3-3.852 4.036-5.005 1.75-1.166 3.749-1.75 5.995-1.75 2.285 0 4.297.577 6.034 1.73 1.75 1.14 3.095 2.8 4.035 4.984.94 2.17 1.411 4.7 1.411 7.59v1.87zm-3.742-1.912c0-3.513-.679-6.206-2.037-8.078-1.359-1.885-3.259-2.828-5.701-2.828-2.377 0-4.251.943-5.622 2.829-1.359 1.871-2.057 4.475-2.097 7.812v2.177c0 3.404.686 6.083 2.057 8.036 1.385 1.94 3.285 2.91 5.701 2.91 2.43 0 4.31-.916 5.642-2.747 1.332-1.845 2.018-4.483 2.057-7.914v-2.197zm14.242-13.855l9.325 24.17 9.325-24.17h4.878v29.622h-3.761V27.353l.352-12.45-9.364 23.986h-2.879l-9.345-23.926.372 12.39V38.89h-3.761V9.266h4.858zm46.272 21.891h-11.95l-2.684 7.73h-3.878l10.892-29.621h3.291L163.4 38.889h-3.86l-2.723-7.731zm-10.813-3.215h9.697l-4.859-13.855-4.838 13.855zm31.697-1.037h-6.7v11.983h-3.781V9.266h9.442c3.213 0 5.681.76 7.405 2.28 1.737 1.518 2.606 3.73 2.606 6.632 0 1.844-.483 3.451-1.45 4.821-.953 1.37-2.285 2.394-3.996 3.073l6.7 12.573v.244h-4.036l-6.19-11.983zm-6.7-3.194h5.779c1.867 0 3.35-.502 4.447-1.506 1.11-1.004 1.665-2.346 1.665-4.028 0-1.831-.529-3.235-1.587-4.212-1.045-.976-2.56-1.471-4.545-1.485h-5.759v11.23zm42.902 1.322c0 2.902-.47 5.439-1.41 7.609-.94 2.157-2.273 3.804-3.997 4.944-1.724 1.14-3.735 1.709-6.033 1.709-2.247 0-4.238-.57-5.975-1.71-1.737-1.152-3.089-2.786-4.056-4.902-.953-2.13-1.443-4.591-1.469-7.386v-2.136c0-2.848.477-5.364 1.43-7.548.954-2.184 2.299-3.852 4.036-5.005 1.75-1.166 3.748-1.75 5.994-1.75 2.286 0 4.297.577 6.034 1.73 1.75 1.14 3.096 2.8 4.036 4.984.94 2.17 1.41 4.7 1.41 7.59v1.87zm-3.741-1.912c0-3.513-.68-6.206-2.038-8.078-1.358-1.885-3.258-2.828-5.701-2.828-2.376 0-4.251.943-5.622 2.829-1.358 1.871-2.057 4.475-2.096 7.812v2.177c0 3.404.686 6.083 2.057 8.036 1.384 1.94 3.285 2.91 5.701 2.91 2.429 0 4.309-.916 5.642-2.747 1.332-1.845 2.017-4.483 2.057-7.914v-2.197zM228.557 33.7l8.149-24.434h4.114L230.242 38.89h-3.331L216.352 9.266h4.094l8.111 24.435z" fill="#000"/><path d="M87.93 40.762a3.284 3.284 0 00-2.41-1.064H38.645c-.915 0-1.79.389-2.42 1.077l-7.479 8.148A3.285 3.285 0 0126.325 50H6.038c-3.029 0-4.496-3.849-2.289-6.003L47.876.942A3.277 3.277 0 0150.166 0h23.64c.847 0 1.663.334 2.282.935l44.371 43.056c2.217 2.15.751 6.009-2.282 6.009H97.914a3.284 3.284 0 01-2.408-1.064l-7.577-8.174zM50.23 25.49c-2.022 2.212-.513 5.863 2.425 5.863H71.44c2.946 0 4.452-3.67 2.412-5.877l-9.444-10.215a3.258 3.258 0 00-4.836.013l-9.34 10.216z" fill="#000" fill-opacity=".76"/><path d="M209.036 36.564c0-1.894-1.888-3.342-5.664-4.345-3.776-1.025-10.573-2.094-20.392-3.208-9.818-1.137-17.59-2.25-23.318-3.343-15.608-2.985-23.412-7.007-23.412-12.065 0-2.63 2.077-4.969 6.231-7.019 4.216-2.072 10.227-3.687 18.031-4.846C168.379.579 177.19 0 186.945 0c9.819 0 18.567.635 26.245 1.905 7.678 1.248 13.626 3.02 17.843 5.314 2.612 1.401 4.427 2.918 5.445 4.551 1.003 1.61-.523 3.27-2.369 3.27h-21.635c-1.846 0-3.422-1.745-4.839-2.974-.992-.86-2.475-1.596-4.452-2.206-3.965-1.248-9.535-1.872-16.71-1.872-6.923 0-12.304.524-16.143 1.57-3.839 1.026-5.759 2.385-5.759 4.078 0 1.582 2.235 2.908 6.703 3.978 4.532 1.07 11.171 2.072 19.92 3.008 16.111 1.715 27.849 3.843 35.213 6.383 7.363 2.54 11.045 5.704 11.045 9.492 0 4.212-4.5 7.52-13.5 9.927-9 2.384-21.115 3.576-36.346 3.576-10.573 0-20.202-.68-28.888-2.039-8.685-1.381-15.325-3.264-19.919-5.648-2.874-1.512-4.836-3.176-5.888-4.993-.951-1.644.588-3.296 2.434-3.296h21.729c1.847 0 3.335 1.736 4.62 3.112 3.077 3.295 11.714 4.943 25.912 4.943 6.735 0 11.99-.48 15.766-1.437 3.776-.98 5.664-2.34 5.664-4.078z" fill="#000"/></svg>
